src/images/logo_ourvoice.svg

<svg xmlns="http://www.w3.org/2000/svg" viewBox="0 0 700 90"><defs><style>.cls-1{fill:#75b1a5}.cls-2{fill:#ffc539}</style></defs><title>logo_ourvoice</title><g id="Calque_2" data-name="Calque 2"><g id="Calque_1-2" data-name="Calque 1"><path class="cls-1" d="M63.63 39.11l-3.44 12h14.67l-1.2 14.19H56l-6.76 23.5H32.93l6.83-23.5H29.61l-6.83 23.5H6.47l6.77-23.5H0l1.27-14.23h16.07l3.44-12H6.59l1.2-14.43H25l6.72-23.26H48l-6.67 23.26h10.15l6.71-23.26H74.5l-6.65 23.26h13.36l-1.27 14.47zm-30 12h10.18l3.5-12H37.16zM133.29 0Q149 0 157.73 8.88t8.73 24.79a69.3 69.3 0 0 1-6 29.09q-6 13.19-16.59 20.21a43.28 43.28 0 0 1-24.53 7q-16.26 0-25.11-8.91t-8.85-24.73a67.75 67.75 0 0 1 6.22-29.12Q97.82 13.93 108.55 7a44.41 44.41 0 0 1 24.74-7zm9.31 33.91q0-6.82-2.9-10.67a9.87 9.87 0 0 0-8.4-3.86q-6 0-11 5t-8 13.81a55.52 55.52 0 0 0-3 18q0 14.47 12.08 14.47 5.74 0 10.66-5a33.87 33.87 0 0 0 7.73-13.4 58 58 0 0 0 2.83-18.35zM257.89 1.38l-12 55.73q-3.6 16.81-13.62 24.89T205 90a30 30 0 0 1-14.29-3.29 23.23 23.23 0 0 1-9.55-9.21 26.34 26.34 0 0 1-3.35-13.22 42 42 0 0 1 .73-7.71l12-55.2h23.66L202.42 56a34.67 34.67 0 0 0-.85 6.88q0 7.59 7.31 7.59a11 11 0 0 0 8.91-3.86q3.23-3.86 4.92-11.81l11.54-53.4zM289.49 57l-6.83 31.8H259l18.7-87.42h23.38q15.23 0 23.32 6t8.1 18a30.29 30.29 0 0 1-4.29 16.27 27 27 0 0 1-12.75 10.58L329 83.06l2.42 5.74h-25.74L293.9 57zm3.81-17.76h3.08q5.74 0 9.12-3.26t3.38-9.12a7.35 7.35 0 0 0-2.08-5.65 8.6 8.6 0 0 0-6.07-1.94h-3.2z"/><path class="cls-2" d="M397.95 1.38h25l-43.8 87.42h-26.34l-6.28-87.42h23.08l1.63 47.9v3a108.27 108.27 0 0 1-1 15.31h.48q.85-3.83 2.69-9.42a73.45 73.45 0 0 1 3.35-8.7zM468 0q15.71 0 24.44 8.88t8.73 24.79a69.3 69.3 0 0 1-6 29.09q-6 13.19-16.59 20.21a43.28 43.28 0 0 1-24.53 7Q437.82 90 429 81.09t-8.85-24.76a67.75 67.75 0 0 1 6.22-29.12q6.2-13.28 16.92-20.21A44.41 44.41 0 0 1 468 0zm9.31 33.91q0-6.82-2.9-10.67a9.87 9.87 0 0 0-8.4-3.86q-6 0-11 5t-8 13.81a55.52 55.52 0 0 0-3 18q0 14.47 12.08 14.47 5.74 0 10.66-5a33.87 33.87 0 0 0 7.73-13.4 58 58 0 0 0 2.86-18.35zm29.58 54.89l18.67-87.42h24L530.88 88.8zm95.29-69.3a17.31 17.31 0 0 0-11.78 4.66A31 31 0 0 0 582.15 37a51.42 51.42 0 0 0-3 17.76q0 8 3.38 12t9.73 3.95a43.61 43.61 0 0 0 10.15-1.23 79.28 79.28 0 0 0 12.09-4.18v19.32A65.43 65.43 0 0 1 587.92 90q-15.71 0-24.2-8.88T555.23 56a68.74 68.74 0 0 1 6.13-29.18q6.13-13.28 16.68-20A43.76 43.76 0 0 1 602.18 0a55.39 55.39 0 0 1 29.06 7.83l-8.94 18.24a60 60 0 0 0-10.3-4.93 29.5 29.5 0 0 0-9.82-1.64zm79.15 69.3h-52.45l18.67-87.42H700l-3.93 19h-28.82l-2.84 13.75h26.83l-4.35 19h-26.83l-3.44 16.5h28.82z"/></g></g></svg>

<svg xmlns="http://www.w3.org/2000/svg" viewBox="0 0 700 90"><defs><style>.cls-1{fill:#75b1a5;}.cls-2{fill:#ffc539;}</style></defs><title>logo_ourvoice</title><g id="Calque_2" data-name="Calque 2"><g id="Calque_1-2" data-name="Calque 1"><path class="cls-1" d="M63.63,39.11l-3.44,12H74.86L73.66,65.3H56L49.24,88.8H32.93l6.83-23.5H29.61L22.78,88.8H6.47l6.77-23.5H0L1.27,51.07H17.34l3.44-12H6.59L7.79,24.64H25L31.72,1.38H48L41.33,24.64H51.48L58.19,1.38H74.5L67.85,24.64H81.21L79.94,39.11Zm-30,12H43.81l3.5-12H37.16Z"/><path class="cls-1" d="M133.29,0Q149,0,157.73,8.88t8.73,24.79a69.3,69.3,0,0,1-6,29.09q-6,13.19-16.59,20.21a43.28,43.28,0,0,1-24.53,7q-16.26,0-25.11-8.91T85.38,56.33A67.75,67.75,0,0,1,91.6,27.21Q97.82,13.93,108.55,7A44.41,44.41,0,0,1,133.29,0Zm9.31,33.91q0-6.82-2.9-10.67a9.87,9.87,0,0,0-8.4-3.86q-6,0-11,5t-8,13.81a55.52,55.52,0,0,0-3,18q0,14.47,12.08,14.47,5.74,0,10.66-5a33.87,33.87,0,0,0,7.73-13.4A58,58,0,0,0,142.6,33.91Z"/><path class="cls-1" d="M257.89,1.38l-12,55.73Q242.29,73.92,232.27,82T205,90a30,30,0,0,1-14.29-3.29,23.23,23.23,0,0,1-9.55-9.21,26.34,26.34,0,0,1-3.35-13.22,42,42,0,0,1,.73-7.71l12-55.2H214.2L202.42,56a34.67,34.67,0,0,0-.85,6.88q0,7.59,7.31,7.59a11,11,0,0,0,8.91-3.86q3.23-3.86,4.92-11.81l11.54-53.4Z"/><path class="cls-1" d="M289.49,57,282.66,88.8H259L277.7,1.38h23.38q15.23,0,23.32,6t8.1,18a30.29,30.29,0,0,1-4.29,16.27,27,27,0,0,1-12.75,10.58L329,83.06l2.42,5.74H305.68L293.9,57Zm3.81-17.76h3.08q5.74,0,9.12-3.26t3.38-9.12a7.35,7.35,0,0,0-2.08-5.65,8.6,8.6,0,0,0-6.07-1.94h-3.2Z"/><path class="cls-2" d="M397.95,1.38h25L379.15,88.8H352.81L346.53,1.38h23.08l1.63,47.9v3a108.27,108.27,0,0,1-1,15.31h.48q.85-3.83,2.69-9.42a73.45,73.45,0,0,1,3.35-8.7Z"/><path class="cls-2" d="M468,0q15.71,0,24.44,8.88t8.73,24.79a69.3,69.3,0,0,1-6,29.09q-6,13.19-16.59,20.21a43.28,43.28,0,0,1-24.53,7Q437.82,90,429,81.09t-8.85-24.76a67.75,67.75,0,0,1,6.22-29.12Q432.57,13.93,443.29,7A44.41,44.41,0,0,1,468,0Zm9.31,33.91q0-6.82-2.9-10.67a9.87,9.87,0,0,0-8.4-3.86q-6,0-11,5t-8,13.81a55.52,55.52,0,0,0-3,18q0,14.47,12.08,14.47,5.74,0,10.66-5a33.87,33.87,0,0,0,7.73-13.4A58,58,0,0,0,477.34,33.91Z"/><path class="cls-2" d="M506.89,88.8,525.56,1.38h24L530.88,88.8Z"/><path class="cls-2" d="M602.18,19.5a17.31,17.31,0,0,0-11.78,4.66A31,31,0,0,0,582.15,37a51.42,51.42,0,0,0-3,17.76q0,8,3.38,12t9.73,3.95a43.61,43.61,0,0,0,10.15-1.23A79.28,79.28,0,0,0,614.5,65.3V84.62A65.43,65.43,0,0,1,587.92,90q-15.71,0-24.2-8.88T555.23,56a68.74,68.74,0,0,1,6.13-29.18q6.13-13.28,16.68-20A43.76,43.76,0,0,1,602.18,0a55.39,55.39,0,0,1,29.06,7.83L622.3,26.07A60,60,0,0,0,612,21.14,29.5,29.5,0,0,0,602.18,19.5Z"/><path class="cls-2" d="M681.33,88.8H628.88L647.55,1.38H700l-3.93,19H667.25l-2.84,13.75h26.83l-4.35,19H660.06l-3.44,16.5h28.82Z"/></g></g></svg>
